src/assets/duotone/ToggleOff.svg

<svg width="24" height="24" viewBox="0 0 24 24"  xmlns="http://www.w3.org/2000/svg">
<path opacity="0.4" d="M16.65 3.86035H7.35C3.25 3.86035 2 5.11035 2 9.21035V14.7904C2 18.8904 3.25 20.1404 7.35 20.1404H16.65C20.75 20.1404 22 18.8904 22 14.7904V9.21035C22 5.11035 20.75 3.86035 16.65 3.86035Z" />
<path d="M10.7898 7.58008H8.55977C6.30977 7.58008 5.25977 8.63008 5.25977 10.8801V13.1101C5.25977 15.3601 6.30977 16.4101 8.55977 16.4101H10.7898C13.0398 16.4101 14.0898 15.3601 14.0898 13.1101V10.8801C14.0898 8.63008 13.0398 7.58008 10.7898 7.58008Z" />
</svg>

<?xml version="1.0" encoding="UTF-8"?>
<svg width="24" height="24" viewBox="0 0 24 24" xmlns="http://www.w3.org/2000/svg">
 <path d="m16.65 3.8604h-9.3c-4.1 0-5.35 1.25-5.35 5.35v5.58c0 4.1 1.25 5.35 5.35 5.35h9.3c4.1 0 5.35-1.25 5.35-5.35v-5.58c0-4.1-1.25-5.35-5.35-5.35z" opacity=".4"/>
 <path d="m10.79 7.5801h-2.23c-2.25 0-3.3 1.05-3.3 3.3v2.23c0 2.25 1.05 3.3 3.3 3.3h2.23c2.25 0 3.3-1.05 3.3-3.3v-2.23c0-2.25-1.05-3.3-3.3-3.3z"/>
</svg>
